ocio/looks/openagx_s67_5.spi1d
Version 1
From 0.000000 1.000000
Length 4096
Components 1
{
        0.00000000000000E+00
        5.14087938066199E-08
        2.05712616267671E-07
        4.63027793109114E-07
        8.23470869404754E-07
        1.28715861015574E-06
        1.85420800087201E-06
        2.52473624815574E-06
        3.29886078028679E-06
        4.17669924781008E-06
        5.15836952412505E-06
        6.24398970607706E-06
        7.43367811455088E-06
        8.72755329506615E-06
        1.01257340183749E-05
        1.16283392810611E-05
        1.32354883061424E-05
        1.49473005436734E-05
        1.67638956713521E-05
        1.86853935951271E-05
        2.07119144498078E-05
        2.28435785996763E-05
        2.50805066391016E-05
        2.74228193931558E-05
        2.98706379182327E-05
        3.24240835026677E-05
        3.50832776673611E-05
        3.78483421664024E-05
        4.07193989876975E-05
        4.36965703535977E-05
        4.67799787215311E-05
        4.99697467846360E-05
        5.32659974723964E-05
        5.66688539512803E-05
        6.01784396253794E-05
        6.37948781370516E-05
        6.75182933675656E-05
        7.13488094377475E-05
        7.52865507086301E-05
        7.93316417821039E-05
        8.34842075015710E-05
        8.77443729526010E-05
        9.21122634635887E-05
        9.65880046064148E-05
        1.01171722197109E-04
        1.05863542296515E-04
        1.10663591210957E-04
        1.15571995492911E-04
        1.20588881941676E-04
        1.25714377604048E-04
        1.30948609774998E-04
        1.36291705998350E-04
        1.41743794067465E-04
        1.47305002025921E-04
        1.52975458168204E-04
        1.58755291040392E-04
        1.64644629440853E-04
        1.70643602420930E-04
        1.76752339285646E-04
        1.82970969594395E-04
        1.89299623161649E-04
        1.95738430057658E-04
        2.02287520609159E-04
        2.08947025400081E-04
        2.15717075272259E-04
        2.22597801326148E-04
        2.29589334921537E-04
        2.36691807678268E-04
        2.43905351476960E-04
        2.51230098459729E-04
        2.58666181030920E-04
        2.66213731857828E-04
        2.73872883871438E-04
        2.81643770267154E-04
        2.89526524505539E-04
        2.97521280313052E-04
        3.05628171682791E-04
        3.13847332875240E-04
        3.22178898419015E-04
        3.30623003111612E-04
        3.39179782020165E-04
        3.47849370482196E-04
        3.56631904106380E-04
        3.65527518773299E-04
        3.74536350636213E-04
        3.83658536121818E-04
        3.92894211931027E-04
        4.02243515039731E-04
        4.11706582699580E-04
        4.21283552438759E-04
        4.30974562062772E-04
        4.40779749655221E-04
        4.50699253578593E-04
        4.60733212475053E-04
        4.70881765267230E-04
        4.81145051159018E-04
        4.91523209636372E-04
        5.02016380468104E-04
        5.12624703706696E-04
        5.23348319689098E-04
        5.34187369037541E-04
        5.45141992660352E-04
        5.56212331752763E-04
        5.67398527797738E-04
        5.78700722566788E-04
        5.90119058120798E-04
        6.01653676810853E-04
        6.13304721279072E-04
        6.25072334459438E-04
        6.36956659578638E-04
        6.48957840156901E-04
        6.61076020008838E-04
        6.73311343244296E-04
        6.85663954269198E-04
        6.98133997786403E-04
        7.10721618796558E-04
        7.23426962598954E-04
        7.36250174792394E-04
        7.49191401276054E-04
        7.62250788250351E-04
        7.75428482217815E-04
        7.88724629983968E-04
        8.02139378658194E-04
        8.15672875654627E-04
        8.29325268693033E-04
        8.43096705799697E-04
        8.56987335308317E-04
        8.70997305860893E-04
        8.85126766408635E-04
        8.99375866212850E-04
        9.13744754845861E-04
        9.28233582191905E-04
        9.42842498448048E-04
        9.57571654125102E-04
        9.72421200048538E-04
        9.87391287359413E-04
        1.00248206751529E-03
        1.01769369229118E-03
        1.03302631378044E-03
        1.04848008439576E-03
        1.06405515687007E-03
        1.07975168425746E-03
        1.09556981993420E-03
        1.11150971759959E-03
        1.12757153127703E-03
        1.14375541531486E-03
        1.16006152438740E-03
        1.17649001349590E-03
        1.19304103796947E-03
        1.20971475346612E-03
        1.22651131597365E-03
        1.24343088181072E-03
        1.26047360762775E-03
        1.27763965040796E-03
        1.29492916746837E-03
        1.31234231646073E-03
        1.32987925537259E-03
        1.34754014252824E-03
        1.36532513658978E-03
        1.38323439655808E-03
        1.40126808177379E-03
        1.41942635191842E-03
        1.43770936701527E-03
        1.45611728743055E-03
        1.47465027387434E-03
        1.49330848740165E-03
        1.51209208941344E-03
        1.53100124165769E-03
        1.55003610623044E-03
        1.56919684557682E-03
        1.58848362249210E-03
        1.60789660012279E-03
        1.62743594196765E-03
        1.64710181187878E-03
        1.66689437406269E-03
        1.68681379308140E-03
        1.70686023385345E-03
        1.72703386165504E-03
        1.74733484212111E-03
        1.76776334124641E-03
        1.78831952538662E-03
        1.80900356125942E-03
        1.82981561594561E-03
        1.85075585689023E-03
        1.87182445190366E-03
        1.89302156916274E-03
        1.91434737721187E-03
        1.93580204496417E-03
        1.95738574170261E-03
        1.97909863708109E-03
        2.00094090112567E-03
        2.02291270423561E-03
        2.04501421718461E-03
        2.06724561112191E-03
        2.08960705757345E-03
        2.11209872844307E-03
        2.13472079601362E-03
        2.15747343294817E-03
        2.18035681229118E-03
        2.20337110746969E-03
        2.22651649229446E-03
        2.24979314096120E-03
        2.27320122805179E-03
        2.29674092853539E-03
        2.32041241776975E-03
        2.34421587150234E-03
        2.36815146587160E-03
        2.39221937740814E-03
        2.41641978303600E-03
        2.44075286007382E-03
        2.46521878623614E-03
        2.48981773963459E-03
        2.51454989877914E-03
        2.53941544257936E-03
        2.56441455034569E-03
        2.58954740179065E-03
        2.61481417703015E-03
        2.64021505658473E-03
        2.66575022138087E-03
        2.69141985275220E-03
        2.71722413244087E-03
        2.74316324259877E-03
        2.76923736578887E-03
        2.79544668498649E-03
        2.82179138358061E-03
        2.84827164537521E-03
        2.87488765459055E-03
        2.90163959586450E-03
        2.92852765425387E-03
        2.95555201523576E-03
        2.98271286470887E-03
        3.01001038899484E-03
        3.03744477483963E-03
        3.06501620941485E-03
        3.09272488031913E-03
        3.12057097557947E-03
        3.14855468365262E-03
        3.17667619342648E-03
        3.20493569422143E-03
        3.23333337579177E-03
        3.26186942832708E-03
        3.29054404245363E-03
        3.31935740923578E-03
        3.34830972017742E-03
        3.37740116722333E-03
        3.40663194276065E-03
        3.43600223962031E-03
        3.46551225107842E-03
        3.49516217085776E-03
        3.52495219312918E-03
        3.55488251251311E-03
        3.58495332408096E-03
        3.61516482335663E-03
        3.64551720631793E-03
        3.67601066939813E-03
        3.70664540948737E-03
        3.73742162393419E-03
        3.76833951054701E-03
        3.79939926759564E-03
        3.83060109381280E-03
        3.86194518839560E-03
        3.89343175100709E-03
        3.92506098177777E-03
        3.95683308130713E-03
        3.98874825066523E-03
        4.02080669139414E-03
        4.05300860550962E-03
        4.08535419550259E-03
        4.11784366434074E-03
        4.15047721547008E-03
        4.18325505281654E-03
        4.21617738078755E-03
        4.24924440427361E-03
        4.28245632864993E-03
        4.31581335977801E-03
        4.34931570400725E-03
        4.38296356817660E-03
        4.41675715961615E-03
        4.45069668614878E-03
        4.48478235609182E-03
        4.51901437825867E-03
        4.55339296196047E-03
        4.58791831700777E-03
        4.62259065371217E-03
        4.65741018288802E-03
        4.69237711585413E-03
        4.72749166443539E-03
        4.76275404096453E-03
        4.79816445828382E-03
        4.83372312974675E-03
        4.86943026921977E-03
        4.90528609108404E-03
        4.94129081023713E-03
        4.97744464209478E-03
        5.01374780259265E-03
        5.05020050818808E-03
        5.08680297586184E-03
        5.12355542311995E-03
        5.16045806799540E-03
        5.19751112904998E-03
        5.23471482537606E-03
        5.27206937659841E-03
        5.30957500287599E-03
        5.34723192490381E-03
        5.38504036391470E-03
        5.42300054168121E-03
        5.46111268051741E-03
        5.49937700328077E-03
        5.53779373337399E-03
        5.57636309474691E-03
        5.61508531189836E-03
        5.65396060987805E-03
        5.69298921428847E-03
        5.73217135128678E-03
        5.77150724758675E-03
        5.81099713046066E-03
        5.85064122774121E-03
        5.89043976782349E-03
        5.93039297966692E-03
        5.97050109279716E-03
        6.01076433730815E-03
        6.05118294386403E-03
        6.09175714370109E-03
        6.13248716862985E-03
        6.17337325103699E-03
        6.21441562388736E-03
        6.25561452072602E-03
        6.29697017568027E-03
        6.33848282346163E-03
        6.38015269936796E-03
        6.42198003928545E-03
        6.46396507969072E-03
        6.50610805765288E-03
        6.54840921083560E-03
        6.59086877749919E-03
        6.63348699650275E-03
        6.67626410730623E-03
        6.71920034997255E-03
        6.76229596516976E-03
        6.80555119417316E-03
        6.84896627886743E-03
        6.89254146174881E-03
        6.93627698592727E-03
        6.98017309512865E-03
        7.02423003369692E-03
        7.06844804659627E-03
        7.11282737941343E-03
        7.15736827835980E-03
        7.20207099027371E-03
        7.24693576262270E-03
        7.29196284350566E-03
        7.33715248165520E-03
        7.38250492643987E-03
        7.42802042786640E-03
        7.47369923658208E-03
        7.51954160387698E-03
        7.56554778168628E-03
        7.61171802259262E-03
        7.65805257982840E-03
        7.70455170727813E-03
        7.75121565948083E-03
        7.79804469163228E-03
        7.84503905958752E-03
        7.89219901986316E-03
        7.93952482963982E-03
        7.98701674676450E-03
        8.03467502975305E-03
        8.08249993779252E-03
        8.13049173074371E-03
        8.17865066914353E-03
        8.22697701420751E-03
        8.27547102783229E-03
        8.32413297259807E-03
        8.37296311177114E-03
        8.42196170930637E-03
        8.47112902984977E-03
        8.52046533874097E-03
        8.56997090201583E-03
        8.61964598640895E-03
        8.66949085935629E-03
        8.71950578899769E-03
        8.76969104417952E-03
        8.82004689445730E-03
        8.87057361009824E-03
        8.92127146208397E-03
        8.97214072211315E-03
        9.02318166260407E-03
        9.07439455669743E-03
        9.12577967825896E-03
        9.17733730188208E-03
        9.22906770289073E-03
        9.28097115734196E-03
        9.33304794202876E-03
        9.38529833448276E-03
        9.43772261297702E-03
        9.49032105652877E-03
        9.54309394490225E-03
        9.59604155861149E-03
        9.64916417892308E-03
        9.70246208785910E-03
        9.75593556819987E-03
        9.80958490348685E-03
        9.86341037802550E-03
        9.91741227688818E-03
        9.97159088591705E-03
        1.00259464917269E-02
        1.00804793817083E-02
        1.01351898440303E-02
        1.01900781676433E-02
        1.02451446422826E-02
        1.03003895584706E-02
        1.03558132075204E-02
        1.04114158815386E-02
        1.04671978734281E-02
        1.05231594768917E-02
        1.05793009864347E-02
        1.06356226973679E-02
        1.06921249058111E-02
        1.07488079086960E-02
        1.08056720037694E-02
        1.08627174895959E-02
        1.09199446655618E-02
        1.09773538318777E-02
        1.10349452895818E-02
        1.10927193405433E-02
        1.11506762874652E-02
        1.12088164338882E-02
        1.12671400841931E-02
        1.13256475436049E-02
        1.13843391181954E-02
        1.14432151148868E-02
        1.15022758414552E-02
        1.15615216065335E-02
        1.16209527196151E-02
        1.16805694910570E-02
        1.17403722320833E-02
        1.18003612547888E-02
        1.18605368721420E-02
        1.19208993979887E-02
        1.19814491470557E-02
        1.20421864349539E-02
        1.21031115781820E-02
        1.21642248941298E-02
        1.22255267010820E-02
        1.22870173182215E-02
        1.23486970656331E-02
        1.24105662643070E-02
        1.24726252361423E-02
        1.25348743039508E-02
        1.25973137914606E-02
        1.26599440233194E-02
        1.27227653250988E-02
        1.27857780232973E-02
        1.28489824453446E-02
        1.29123789196049E-02
        1.29759677753807E-02
        1.30397493429168E-02
        1.31037239534039E-02
        1.31678919389824E-02
        1.32322536327462E-02
        1.32968093687465E-02
        1.33615594819959E-02
        1.34265043084720E-02
        1.34916441851214E-02
        1.35569794498637E-02
        1.36225104415953E-02
        1.36882375001934E-02
        1.37541609665200E-02
        1.38202811824259E-02
        1.38865984907547E-02
        1.39531132353469E-02
        1.40198257610440E-02
        1.40867364136922E-02
        1.41538455401471E-02
        1.42211534882774E-02
        1.42886606069692E-02
        1.43563672461302E-02
        1.44242737566938E-02
        1.44923804906234E-02
        1.45606878009166E-02
        1.46291960416093E-02
        1.46979055677804E-02
        1.47668167355556E-02
        1.48359299021121E-02
        1.49052454256828E-02
        1.49747636655608E-02
        1.50444849821034E-02
        1.51144097367372E-02
        1.51845382919618E-02
        1.52548710113548E-02
        1.53254082595762E-02
        1.53961504023726E-02
        1.54670978065822E-02
        1.55382508401390E-02
        1.56096098720775E-02
        1.56811752725376E-02
        1.57529474127686E-02
        1.58249266651345E-02
        1.58971134031184E-02
        1.59695080013271E-02
        1.60421108354963E-02
        1.61149222824946E-02
        1.61879427203293E-02
        1.62611725281501E-02
        1.63346120862549E-02
        1.64082617760942E-02
        1.64821219802759E-02
        1.65561930825706E-02
        1.66304754679162E-02
        1.67049695224233E-02
        1.67796756333795E-02
        1.68545941892553E-02
        1.69297255797085E-02
        1.70050701955894E-02
        1.70806284289464E-02
        1.71564006730304E-02
        1.72323873223006E-02
        1.73085887724293E-02
        1.73850054203074E-02
        1.74616376640495E-02
        1.75384859029992E-02
        1.76155505377344E-02
        1.76928319700729E-02
        1.77703306030774E-02
        1.78480468410612E-02
        1.79259810895933E-02
        1.80041337555044E-02
        1.80825052468918E-02
        1.81610959731255E-02
        1.82399063448533E-02
        1.83189367740066E-02
        1.83981876738060E-02
        1.84776594587669E-02
        1.85573525447055E-02
        1.86372673487439E-02
        1.87174042893164E-02
        1.87977637861751E-02
        1.88783462603958E-02
        1.89591521343836E-02
        1.90401818318790E-02
        1.91214357779637E-02
        1.92029143990668E-02
        1.92846181229706E-02
        1.93665473788164E-02
        1.94487025971109E-02
        1.95310842097322E-02
        1.96136926499359E-02
        1.96965283523612E-02
        1.97795917530372E-02
        1.98628832893890E-02
        1.99464034002441E-02
        2.00301525258385E-02
        2.01141311078234E-02
        2.01983395892713E-02
        2.02827784146823E-02
        2.03674480299909E-02
        2.04523488825723E-02
        2.05374814212487E-02
        2.06228460962965E-02
        2.07084433594520E-02
        2.07942736639190E-02
        2.08803374643746E-02
        2.09666352169768E-02
        2.10531673793702E-02
        2.11399344106940E-02
        2.12269367715877E-02
        2.13141749241988E-02
        2.14016493321894E-02
        2.14893604607430E-02
        2.15773087765718E-02
        2.16654947479237E-02
        2.17539188445891E-02
        2.18425815379083E-02
        2.19314833007787E-02
        2.20206246076617E-02
        2.21100059345903E-02
        2.21996277591763E-02
        2.22894905606173E-02
        2.23795948197048E-02
        2.24699410188309E-02
        2.25605296419961E-02
        2.26513611748169E-02
        2.27424361045332E-02
        2.28337549200159E-02
        2.29253181117747E-02
        2.30171261719658E-02
        2.31091795943994E-02
        2.32014788745476E-02
        2.32940245095526E-02
        2.33868169982341E-02
        2.34798568410974E-02
        2.35731445403414E-02
        2.36666805998668E-02
        2.37604655252839E-02
        2.38544998239209E-02
        2.39487840048321E-02
        2.40433185788059E-02
        2.41381040583734E-02
        2.42331409578166E-02
        2.43284297931768E-02
        2.44239710822630E-02
        2.45197653446602E-02
        2.46158131017385E-02
        2.47121148766611E-02
        2.48086711943933E-02
        2.49054825817110E-02
        2.50025495672096E-02
        2.50998726813127E-02
        2.51974524562812E-02
        2.52952894262219E-02
        2.53933841270966E-02
        2.54917370967312E-02
        2.55903488748247E-02
        2.56892200029584E-02
        2.57883510246053E-02
        2.58877424851387E-02
        2.59873949318423E-02
        2.60873089139193E-02
        2.61874849825015E-02
        2.62879236906594E-02
        2.63886255934113E-02
        2.64895912477329E-02
        2.65908212125675E-02
        2.66923160488350E-02
        2.67940763194424E-02
        2.68961025892931E-02
        2.69983954252974E-02
        2.71009553963818E-02
        2.72037830734996E-02
        2.73068790296410E-02
        2.74102438398430E-02
        2.75138780811997E-02
        2.76177823328729E-02
        2.77219571761021E-02
        2.78264031942154E-02
        2.79311209726394E-02
        2.80361110989105E-02
        2.81413741626851E-02
        2.82469107557504E-02
        2.83527214720353E-02
        2.84588069076210E-02
        2.85651676607524E-02
        2.86718043318487E-02
        2.87787175235146E-02
        2.88859078405517E-02
        2.89933758899692E-02
        2.91011222809957E-02
        2.92091476250903E-02
        2.93174525359542E-02
        2.94260376295421E-02
        2.95349035240740E-02
        2.96440508400465E-02
        2.97534802002450E-02
        2.98631922297553E-02
        2.99731875559753E-02
        3.00834668086277E-02
        3.01940306197713E-02
        3.03048796238135E-02
        3.04160144575225E-02
        3.05274357600397E-02
        3.06391441728920E-02
        3.07511403400043E-02
        3.08634249077119E-02
        3.09759985247737E-02
        3.10888618423842E-02
        3.12020155141868E-02
        3.13154601962868E-02
        3.14291965472639E-02
        3.15432252281859E-02
        3.16575469026211E-02
        3.17721622366525E-02
        3.18870718988905E-02
        3.20022765604865E-02
        3.21177768951464E-02
        3.22335735791446E-02
        3.23496672913372E-02
        3.24660587131761E-02
        3.25827485287228E-02
        3.26997374246627E-02
        3.28170260903188E-02
        3.29346152176663E-02
        3.30525055013464E-02
        3.31706976386813E-02
        3.32891923296884E-02
        3.34079902770947E-02
        3.35270921863521E-02
        3.36464987656514E-02
        3.37662107259381E-02
        3.38862287809268E-02
        3.40065536471164E-02
        3.41271860438057E-02
        3.42481266931081E-02
        3.43693763199679E-02
        3.44909356521749E-02
        3.46128054203811E-02
        3.47349863581153E-02
        3.48574792018002E-02
        3.49802846907675E-02
        3.51034035672743E-02
        3.52268365765195E-02
        3.53505844666600E-02
        3.54746479888273E-02
        3.55990278971436E-02
        3.57237249487392E-02
        3.58487399037690E-02
        3.59740735254291E-02
        3.60997265799745E-02
        3.62256998367359E-02
        3.63519940681370E-02
        3.64786100497122E-02
        3.66055485601239E-02
        3.67328103811803E-02
        3.68603962978532E-02
        3.69883070982960E-02
        3.71165435738616E-02
        3.72451065191210E-02
        3.73739967318813E-02
        3.75032150132043E-02
        3.76327621674249E-02
        3.77626390021705E-02
        3.78928463283792E-02
        3.80233849603189E-02
        3.81542557156071E-02
        3.82854594152296E-02
        3.84169968835600E-02
        3.85488689483796E-02
        3.86810764408971E-02
        3.88136201957682E-02
        3.89465010511161E-02
        3.90797198485512E-02
        3.92132774331918E-02
        3.93471746536846E-02
        3.94814123622251E-02
        3.96159914145788E-02
        3.97509126701017E-02
        3.98861769917618E-02
        4.00217852461602E-02
        4.01577383035528E-02
        4.02940370378715E-02
        4.04306823267464E-02
        4.05676750515273E-02
        4.07050160973063E-02
        4.08427063529397E-02
        4.09807467110707E-02
        4.11191380681518E-02
        4.12578813244679E-02
        4.13969773841589E-02
        4.15364271552432E-02
        4.16762315496407E-02
        4.18163914831967E-02
        4.19569078757052E-02
        4.20977816509331E-02
        4.22390137366439E-02
        4.23806050646226E-02
        4.25225565706992E-02
        4.26648691947742E-02
        4.28075438808430E-02
        4.29505815770210E-02
        4.30939832355688E-02
        4.32377498129175E-02
        4.33818822696947E-02
        4.35263815707500E-02
        4.36712486851809E-02
        4.38164845863595E-02
        4.39620902519584E-02
        4.41080666639779E-02
        4.42544148087724E-02
        4.44011356770777E-02
        4.45482302640382E-02
        4.46956995692346E-02
        4.48435445967114E-02
        4.49917663550050E-02
        4.51403658571718E-02
        4.52893441208168E-02
        4.54387021681219E-02
        4.55884410258751E-02
        4.57385617254995E-02
        4.58890653030826E-02
        4.60399527994058E-02
        4.61912252599746E-02
        4.63428837350482E-02
        4.64949292796701E-02
        4.66473629536986E-02
        4.68001858218375E-02
        4.69533989536676E-02
        4.71070034236774E-02
        4.72610003112951E-02
        4.74153907009205E-02
        4.75701756819567E-02
        4.77253563488431E-02
        4.78809338010872E-02
        4.80369091432987E-02
        4.81932834852214E-02
        4.83500579417677E-02
        4.85072336330518E-02
        4.86648116844239E-02
        4.88227932265046E-02
        4.89811793952195E-02
        4.91399713318341E-02
        4.92991701829887E-02
        4.94587771007345E-02
        4.96187932425691E-02
        4.97792197714723E-02
        4.99400578559433E-02
        5.01013086700365E-02
        5.02629733933994E-02
        5.04250532113095E-02
        5.05875493147120E-02
        5.07504629002579E-02
        5.09137951703426E-02
        5.10775473331439E-02
        5.12417206026618E-02
        5.14063161987574E-02
        5.15713353471926E-02
        5.17367792796703E-02
        5.19026492338747E-02
        5.20689464535120E-02
        5.22356721883517E-02
        5.24028276942677E-02
        5.25704142332805E-02
        5.27384330735993E-02
        5.29068854896644E-02
        5.30757727621902E-02
        5.32450961782088E-02
        5.34148570311134E-02
