ocio/looks/openagx_s65_0.spi1d
Version 1
From 0.000000 1.000000
Length 4096
Components 1
{
        0.00000000000000E+00
        6.45721188356951E-08
        2.58384268218359E-07
        5.81580337442982E-07
        1.03430448300130E-06
        1.61670112927696E-06
        2.32891496924299E-06
        3.17109096516164E-06
        4.14337434928655E-06
        5.24591062456725E-06
        6.47884556535611E-06
        7.84232521811752E-06
        9.33649590213962E-06
        1.09615042102483E-05
        1.27174970095237E-05
        1.46046214420190E-05
        1.66230249254817E-05
        1.87728551540774E-05
        2.10542600991162E-05
        2.34673880097807E-05
        2.60123874138577E-05
        2.86894071184715E-05
        3.14985962108199E-05
        3.44401040589130E-05
        3.75140803123139E-05
        4.07206749028824E-05
        4.40600380455213E-05
        4.75323202389247E-05
        5.11376722663295E-05
        5.48762451962688E-05
        5.87481903833283E-05
        6.27536594689056E-05
        6.68928043819710E-05
        7.11657773398320E-05
        7.55727308489000E-05
        8.01138177054593E-05
        8.47891909964394E-05
        8.95990041001894E-05
        9.45434106872552E-05
        9.96225647211596E-05
        1.04836620459185E-04
        1.10185732453157E-04
        1.15670055550237E-04
        1.21289744893707E-04
        1.27044955923766E-04
        1.32935844378326E-04
        1.38962566293813E-04
        1.45125278005964E-04
        1.51424136150635E-04
        1.57859297664606E-04
        1.64430919786393E-04
        1.71139160057061E-04
        1.77984176321036E-04
        1.84966126726928E-04
        1.92085169728350E-04
        1.99341464084743E-04
        2.06735168862200E-04
        2.14266443434300E-04
        2.21935447482941E-04
        2.29742340999171E-04
        2.37687284284031E-04
        2.45770437949394E-04
        2.53991962918811E-04
        2.62352020428359E-04
        2.70850772027487E-04
        2.79488379579876E-04
        2.88265005264291E-04
        2.97180811575440E-04
        3.06235961324839E-04
        3.15430617641676E-04
        3.24764943973679E-04
        3.34239104087988E-04
        3.43853262072031E-04
        3.53607582334397E-04
        3.63502229605725E-04
        3.73537368939577E-04
        3.83713165713335E-04
        3.94029785629086E-04
        4.04487394714515E-04
        4.15086159323803E-04
        4.25826246138527E-04
        4.36707822168561E-04
        4.47731054752983E-04
        4.58896111560986E-04
        4.70203160592783E-04
        4.81652370180536E-04
        4.93243908989260E-04
        5.04977946017758E-04
        5.16854650599537E-04
        5.28874192403742E-04
        5.41036741436086E-04
        5.53342468039788E-04
        5.65791542896509E-04
        5.78384137027293E-04
        5.91120421793519E-04
        6.04000568897842E-04
        6.17024750385150E-04
        6.30193138643518E-04
        6.43505906405170E-04
        6.56963226747436E-04
        6.70565273093725E-04
        6.84312219214488E-04
        6.98204239228196E-04
        7.12241507602315E-04
        7.26424199154283E-04
        7.40752489052500E-04
        7.55226552817309E-04
        7.69846566321991E-04
        7.84612705793757E-04
        7.99525147814746E-04
        8.14584069323030E-04
        8.29789647613613E-04
        8.45142060339445E-04
        8.60641485512434E-04
        8.76288101504459E-04
        8.92082087048394E-04
        9.08023621239129E-04
        9.24112883534597E-04
        9.40350053756808E-04
        9.56735312092882E-04
        9.73268839096087E-04
        9.89950815686882E-04
        1.00678142315396E-03
        1.02376084315532E-03
        1.04088925771928E-03
        1.05816684924556E-03
        1.07559380050636E-03
        1.09317029464739E-03
        1.11089651518896E-03
        1.12877264602705E-03
        1.14679887143440E-03
        1.16497537606156E-03
        1.18330234493800E-03
        1.20177996347321E-03
        1.22040841745776E-03
        1.23918789306443E-03
        1.25811857684927E-03
        1.27720065575275E-03
        1.29643431710087E-03
        1.31581974860622E-03
        1.33535713836917E-03
        1.35504667487893E-03
        1.37488854701471E-03
        1.39488294404685E-03
        1.41503005563794E-03
        1.43533007184398E-03
        1.45578318311549E-03
        1.47638958029871E-03
        1.49714945463669E-03
        1.51806299777048E-03
        1.53913040174031E-03
        1.56035185898671E-03
        1.58172756235171E-03
        1.60325770508001E-03
        1.62494248082013E-03
        1.64678208362564E-03
        1.66877670795632E-03
        1.69092654867934E-03
        1.71323180107049E-03
        1.73569266081533E-03
        1.75830932401046E-03
        1.78108198716467E-03
        1.80401084720020E-03
        1.82709610145391E-03
        1.85033794767856E-03
        1.87373658404399E-03
        1.89729220913838E-03
        1.92100502196948E-03
        1.94487522196584E-03
        1.96890300897809E-03
        1.99308858328014E-03
        2.01743214557051E-03
        2.04193389697349E-03
        2.06659403904051E-03
        2.09141277375135E-03
        2.11639030351542E-03
        2.14152683117306E-03
        2.16682255999680E-03
        2.19227769369270E-03
        2.21789243640159E-03
        2.24366699270037E-03
        2.26960156760338E-03
        2.29569636656364E-03
        2.32195159547419E-03
        2.34836746066944E-03
        2.37494416892644E-03
        2.40168192746626E-03
        2.42858094395530E-03
        2.45564142650662E-03
        2.48286358368133E-03
        2.51024762448989E-03
        2.53779375839351E-03
        2.56550219530549E-03
        2.59337314559258E-03
        2.62140682007636E-03
        2.64960343003465E-03
        2.67796318720283E-03
        2.70648630377527E-03
        2.73517299240674E-03
        2.76402346621376E-03
        2.79303793877604E-03
        2.82221662413790E-03
        2.85155973680963E-03
        2.88106749176899E-03
        2.91074010446256E-03
        2.94057779080725E-03
        2.97058076719167E-03
        3.00074925047760E-03
        3.03108345800147E-03
        3.06158360757576E-03
        3.09224991749050E-03
        3.12308260651473E-03
        3.15408189389797E-03
        3.18524799937168E-03
        3.21658114315078E-03
        3.24808154593512E-03
        3.27974942891097E-03
        3.31158501375255E-03
        3.34358852262351E-03
        3.37576017817843E-03
        3.40810020356441E-03
        3.44060882242251E-03
        3.47328625888934E-03
        3.50613273759859E-03
        3.53914848368255E-03
        3.57233372277368E-03
        3.60568868100618E-03
        3.63921358501750E-03
        3.67290866195000E-03
        3.70677413945242E-03
        3.74081024568155E-03
        3.77501720930377E-03
        3.80939525949666E-03
        3.84394462595060E-03
        3.87866553887037E-03
        3.91355822897680E-03
        3.94862292750832E-03
        3.98385986622267E-03
        4.01926927739846E-03
        4.05485139383688E-03
        4.09060644886327E-03
        4.12653467632886E-03
        4.16263631061236E-03
        4.19891158662166E-03
        4.23536073979548E-03
        4.27198400610512E-03
        4.30878162205603E-03
        4.34575382468962E-03
        4.38290085158490E-03
        4.42022294086020E-03
        4.45772033117488E-03
        4.49539326173108E-03
        4.53324197227540E-03
        4.57126670310069E-03
        4.60946769504778E-03
        4.64784518950718E-03
        4.68639942842092E-03
        4.72513065428425E-03
        4.76403911014746E-03
        4.80312503961761E-03
        4.84238868686037E-03
        4.88183029660178E-03
        4.92145011413007E-03
        4.96124838529744E-03
        5.00122535652192E-03
        5.04138127478918E-03
        5.08171638765433E-03
        5.12223094324380E-03
        5.16292519025718E-03
        5.20379937796906E-03
        5.24485375623091E-03
        5.28608857547293E-03
        5.32750408670595E-03
        5.36910054152331E-03
        5.41087819210274E-03
        5.45283729120828E-03
        5.49497809219220E-03
        5.53730084899688E-03
        5.57980581615676E-03
        5.62249324880028E-03
        5.66536340265182E-03
        5.70841653403364E-03
        5.75165289986783E-03
        5.79507275767833E-03
        5.83867636559283E-03
        5.88246398234481E-03
        5.92643586727550E-03
        5.97059228033590E-03
        6.01493348208880E-03
        6.05945973371074E-03
        6.10417129699413E-03
        6.14906843434918E-03
        6.19415140880602E-03
        6.23942048401672E-03
        6.28487592425738E-03
        6.33051799443014E-03
        6.37634696006530E-03
        6.42236308732345E-03
        6.46856664299745E-03
        6.51495789451466E-03
        6.56153710993897E-03
        6.60830455797295E-03
        6.65526050796001E-03
        6.70240522988649E-03
        6.74973899438384E-03
        6.79726207273078E-03
        6.84497473685548E-03
        6.89287725933770E-03
        6.94096991341103E-03
        6.98925297296503E-03
        7.03772671254748E-03
        7.08639140736660E-03
        7.13524733329325E-03
        7.18429476686316E-03
        7.23353398527921E-03
        7.28296526641367E-03
        7.33258888881044E-03
        7.38240513168737E-03
        7.43241427493852E-03
        7.48261659913645E-03
        7.53301238553453E-03
        7.58360191606927E-03
        7.63438547336262E-03
        7.68536334072432E-03
        7.73653580215426E-03
        7.78790314234479E-03
        7.83946564668313E-03
        7.89122360125375E-03
        7.94317729284072E-03
        7.99532700893012E-03
        8.04767303771247E-03
        8.10021566808513E-03
        8.15295518965474E-03
        8.20589189273964E-03
        8.25902606837235E-03
        8.31235800830201E-03
        8.36588800499685E-03
        8.41961635164669E-03
        8.47354334216546E-03
        8.52766927119361E-03
        8.58199443410076E-03
        8.63651912698810E-03
        8.69124364669105E-03
        8.74616829078169E-03
        8.80129335757143E-03
        8.85661914611351E-03
        8.91214595620563E-03
        8.96787408839251E-03
        9.02380384396855E-03
        9.07993552498038E-03
        9.13626943422955E-03
        9.19280587527516E-03
        9.24954515243651E-03
        9.30648757079575E-03
        9.36363343620060E-03
        9.42098305526701E-03
        9.47853673538189E-03
        9.53629478470579E-03
        9.59425751217565E-03
        9.65242522750757E-03
        9.71079824119951E-03
        9.76937686453410E-03
        9.82816140958137E-03
        9.88715218920162E-03
        9.94634951704812E-03
        1.00057537075700E-02
        1.00653650760152E-02
        1.01251839384328E-02
        1.01852106116768E-02
        1.02454454134079E-02
        1.03058886620973E-02
        1.03665406770291E-02
        1.04274017783032E-02
        1.04884722868386E-02
        1.05497525243758E-02
        1.06112428134803E-02
        1.06729434775452E-02
        1.07348548407941E-02
        1.07969772282846E-02
        1.08593109659106E-02
        1.09218563804061E-02
        1.09846137993473E-02
        1.10475835511567E-02
        1.11107659651053E-02
        1.11741613713160E-02
        1.12377701007669E-02
        1.13015924852939E-02
        1.13656288575944E-02
        1.14298795512299E-02
        1.14943449006296E-02
        1.15590252410931E-02
        1.16239209087940E-02
        1.16890322407830E-02
        1.17543595749908E-02
        1.18199032502317E-02
        1.18856636062066E-02
        1.19516409835064E-02
        1.20178357236152E-02
        1.20842481689136E-02
        1.21508786626818E-02
        1.22177275491034E-02
        1.22847951732681E-02
        1.23520818811757E-02
        1.24195880197389E-02
        1.24873139367870E-02
        1.25552599810692E-02
        1.26234265022580E-02
        1.26918138509526E-02
        1.27604223786826E-02
        1.28292524379109E-02
        1.28983043820377E-02
        1.29675785654039E-02
        1.30370753432944E-02
        1.31067950719416E-02
        1.31767381085295E-02
        1.32469048111963E-02
        1.33172955390391E-02
        1.33879106521164E-02
        1.34587505114526E-02
        1.35298154790410E-02
        1.36011059178479E-02
        1.36726221918159E-02
        1.37443646658679E-02
        1.38163337059105E-02
        1.38885296788379E-02
        1.39609529525357E-02
        1.40336038958845E-02
        1.41064828787637E-02
        1.41795902720553E-02
        1.42529264476478E-02
        1.43264917784398E-02
        1.44002866383442E-02
        1.44743114022918E-02
        1.45485664462351E-02
        1.46230521471525E-02
        1.46977688830521E-02
        1.47727170329755E-02
        1.48478969770019E-02
        1.49233090962522E-02
        1.49989537728927E-02
        1.50748313901393E-02
        1.51509423322616E-02
        1.52272869845868E-02
        1.53038657335038E-02
        1.53806789664676E-02
        1.54577270720028E-02
        1.55350104397086E-02
        1.56125294602620E-02
        1.56902845254228E-02
        1.57682760280373E-02
        1.58465043620428E-02
        1.59249699224717E-02
        1.60036731054557E-02
        1.60826143082303E-02
        1.61617939291391E-02
        1.62412123676379E-02
        1.63208700242991E-02
        1.64007673008165E-02
        1.64809046000089E-02
        1.65612823258254E-02
        1.66419008833492E-02
        1.67227606788023E-02
        1.68038621195500E-02
        1.68852056141056E-02
        1.69667915721342E-02
        1.70486204044583E-02
        1.71306925230617E-02
        1.72130083410940E-02
        1.72955682728758E-02
        1.73783727339028E-02
        1.74614221408510E-02
        1.75447169115807E-02
        1.76282574651420E-02
        1.77120442217789E-02
        1.77960776029344E-02
        1.78803580312553E-02
        1.79648859305970E-02
        1.80496617260280E-02
        1.81346858438355E-02
        1.82199587115294E-02
        1.83054807578481E-02
        1.83912524127626E-02
        1.84772741074822E-02
        1.85635462744592E-02
        1.86500693473935E-02
        1.87368437612386E-02
        1.88238699522058E-02
        1.89111483577696E-02
        1.89986794166731E-02
        1.90864635689328E-02
        1.91745012558437E-02
        1.92627929199849E-02
        1.93513390052247E-02
        1.94401399567257E-02
        1.95291962209501E-02
        1.96185082456652E-02
        1.97080764799488E-02
        1.97979013741941E-02
        1.98879833801158E-02
        1.99783229507548E-02
        2.00689205404844E-02
        2.01597766050150E-02
        2.02508916014005E-02
        2.03422659880431E-02
        2.04339002246990E-02
        2.05257947724846E-02
        2.06179500938814E-02
        2.07103666527420E-02
        2.08030449142958E-02
        2.08959853451548E-02
        2.09891884133190E-02
        2.10826545881828E-02
        2.11763843405401E-02
        2.12703781425907E-02
        2.13646364679461E-02
        2.14591597916351E-02
        2.15539485901100E-02
        2.16490033412527E-02
        2.17443245243803E-02
        2.18399126202517E-02
        2.19357681110731E-02
        2.20318914805044E-02
        2.21282832136656E-02
        2.22249437971424E-02
        2.23218737189927E-02
        2.24190734687532E-02
        2.25165435374449E-02
        2.26142844175800E-02
        2.27122966031683E-02
        2.28105805897231E-02
        2.29091368742679E-02
        2.30079659553431E-02
        2.31070683330118E-02
        2.32064445088671E-02
        2.33060949860382E-02
        2.34060202691971E-02
        2.35062208645651E-02
        2.36066972799198E-02
        2.37074500246016E-02
        2.38084796095202E-02
        2.39097865471619E-02
        2.40113713515959E-02
        2.41132345384818E-02
        2.42153766250756E-02
        2.43177981302374E-02
        2.44204995744381E-02
        2.45234814797663E-02
        2.46267443699355E-02
        2.47302887702912E-02
        2.48341152078178E-02
        2.49382242111462E-02
        2.50426163105606E-02
        2.51472920380058E-02
        2.52522519270947E-02
        2.53574965131155E-02
        2.54630263330391E-02
        2.55688419255266E-02
        2.56749438309364E-02
        2.57813325913323E-02
        2.58880087504904E-02
        2.59949728539072E-02
        2.61022254488068E-02
        2.62097670841491E-02
        2.63175983106369E-02
        2.64257196807242E-02
        2.65341317486235E-02
        2.66428350703142E-02
        2.67518302035501E-02
        2.68611177078673E-02
        2.69706981445926E-02
        2.70805720768510E-02
        2.71907400695743E-02
        2.73012026895088E-02
        2.74119605052237E-02
        2.75230140871191E-02
        2.76343640074347E-02
        2.77460108402576E-02
        2.78579551615311E-02
        2.79701975490627E-02
        2.80827385825329E-02
        2.81955788435036E-02
        2.83087189154266E-02
        2.84221593836522E-02
        2.85359008354380E-02
        2.86499438599574E-02
        2.87642890483086E-02
        2.88789369935233E-02
        2.89938882905756E-02
        2.91091435363906E-02
        2.92247033298541E-02
        2.93405682718208E-02
        2.94567389651239E-02
        2.95732160145841E-02
        2.96900000270188E-02
        2.98070916112513E-02
        2.99244913781200E-02
        3.00421999404879E-02
        3.01602179132521E-02
        3.02785459133531E-02
        3.03971845597841E-02
        3.05161344736011E-02
        3.06353962779321E-02
        3.07549705979871E-02
        3.08748580610677E-02
        3.09950592965767E-02
        3.11155749360283E-02
        3.12364056130580E-02
        3.13575519634324E-02
        3.14790146250593E-02
        3.16007942379981E-02
        3.17228914444694E-02
        3.18453068888657E-02
        3.19680412177617E-02
        3.20910950799242E-02
        3.22144691263232E-02
        3.23381640101418E-02
        3.24621803867869E-02
        3.25865189139002E-02
        3.27111802513681E-02
        3.28361650613335E-02
        3.29614740082054E-02
        3.30871077586710E-02
        3.32130669817055E-02
        3.33393523485841E-02
        3.34659645328924E-02
        3.35929042105379E-02
        3.37201720597610E-02
        3.38477687611464E-02
        3.39756949976348E-02
        3.41039514545335E-02
        3.42325388195288E-02
        3.43614577826968E-02
        3.44907090365158E-02
        3.46202932758774E-02
        3.47502111980985E-02
        3.48804635029333E-02
        3.50110508925853E-02
        3.51419740717187E-02
        3.52732337474715E-02
        3.54048306294667E-02
        3.55367654298251E-02
        3.56690388631775E-02
        3.58016516466772E-02
        3.59346045000122E-02
        3.60678981454181E-02
        3.62015333076905E-02
        3.63355107141977E-02
        3.64698310948939E-02
        3.66044951823314E-02
        3.67395037116743E-02
        3.68748574207110E-02
        3.70105570498678E-02
        3.71466033422215E-02
        3.72829970435135E-02
        3.74197389021623E-02
        3.75568296692780E-02
        3.76942700986748E-02
        3.78320609468855E-02
        3.79702029731746E-02
        3.81086969395529E-02
        3.82475436107906E-02
        3.83867437544317E-02
        3.85262981408082E-02
        3.86662075430542E-02
        3.88064727371201E-02
        3.89470945017870E-02
        3.90880736186814E-02
        3.92294108722895E-02
        3.93711070499719E-02
        3.95131629419786E-02
        3.96555793414636E-02
        3.97983570445002E-02
        3.99414968500954E-02
        4.00849995602059E-02
        4.02288659797528E-02
        4.03730969166372E-02
        4.05176931817555E-02
        4.06626555890150E-02
        4.08079849553499E-02
        4.09536821007367E-02
        4.10997478482100E-02
        4.12461830238791E-02
        4.13929884569434E-02
        4.15401649797090E-02
        4.16877134276049E-02
        4.18356346391996E-02
        4.19839294562173E-02
        4.21325987235550E-02
        4.22816432892988E-02
        4.24310640047411E-02
        4.25808617243974E-02
        4.27310373060237E-02
        4.28815916106334E-02
        4.30325255025147E-02
        4.31838398492485E-02
        4.33355355217251E-02
        4.34876133941630E-02
        4.36400743441257E-02
        4.37929192525404E-02
        4.39461490037157E-02
        4.40997644853599E-02
        4.42537665885994E-02
        4.44081562079968E-02
        4.45629342415701E-02
        4.47181015908109E-02
        4.48736591607033E-02
        4.50296078597433E-02
        4.51859485999572E-02
        4.53426822969215E-02
        4.54998098697819E-02
        4.56573322412729E-02
        4.58152503377375E-02
        4.59735650891469E-02
        4.61322774291206E-02
        4.62913882949461E-02
        4.64508986275995E-02
        4.66108093717658E-02
        4.67711214758592E-02
        4.69318358920437E-02
        4.70929535762542E-02
        4.72544754882174E-02
        4.74164025914724E-02
        4.75787358533927E-02
        4.77414762452068E-02
        4.79046247420205E-02
        4.80681823228380E-02
        4.82321499705841E-02
        4.83965286721261E-02
        4.85613194182960E-02
        4.87265232039127E-02
        4.88921410278049E-02
        4.90581738928332E-02
        4.92246228059134E-02
        4.93914887780390E-02
        4.95587728243051E-02
        4.97264759639309E-02
        4.98945992202838E-02
        5.00631436209028E-02
        5.02321101975224E-02
        5.04014999860967E-02
        5.05713140268233E-02
        5.07415533641681E-02
        5.09122190468897E-02
        5.10833121280640E-02
        5.12548336651092E-02
        5.14267847198111E-02
        5.15991663583480E-02
        5.17719796513165E-02
        5.19452256737573E-02
        5.21189055051805E-02
        5.22930202295924E-02
        5.24675709355210E-02
        5.26425587160430E-02
        5.28179846688105E-02
        5.29938498960772E-02
        5.31701555047263E-02
        5.33469026062971E-02
        5.35240923170128E-02
        5.37017257578082E-02
        5.38798040543574E-02
        5.40583283371020E-02
        5.42372997412795E-02
        5.44167194069516E-02
        5.45965884790331E-02
        5.47769081073212E-02
        5.49576794465240E-02
        5.51389036562903E-02
        5.53205819012394E-02
        5.55027153509907E-02
        5.56853051801941E-02
        5.58683525685599E-02
        5.60518587008897E-02
        5.62358247671072E-02
        5.64202519622892E-02
        5.66051414866968E-02
        5.67904945458072E-02
        5.69763123503452E-02
        5.71625961163154E-02
        5.73493470650345E-02
        5.75365664231635E-02
        5.77242554227414E-02
        5.79124153012171E-02
        5.81010473014835E-02
        5.82901526719109E-02
        5.84797326663807E-02
        5.86697885443199E-02
        5.88603215707349E-02
        5.90513330162468E-02
        5.92428241571257E-02
        5.94347962753268E-02
        5.96272506585250E-02
        5.98201886001511E-02
        6.00136113994282E-02
        6.02075203614075E-02
        6.04019167970051E-02
        6.05968020230394E-02
        6.07921773622678E-02
        6.09880441434248E-02
        6.11844037012594E-02
        6.13812573765734E-02
        6.15786065162603E-02
        6.17764524733437E-02
        6.19747966070163E-02
        6.21736402826799E-02
        6.23729848719847E-02
        6.25728317528696E-02
        6.27731823096027E-02
        6.29740379328219E-02
        6.31754000195762E-02
        6.33772699733670E-02
        6.35796492041898E-02
        6.37825391285768E-02
        6.39859411696391E-02
        6.41898567571091E-02
        6.43942873273848E-02
        6.45992343235722E-02
        6.48046991955304E-02
        6.50106833999148E-02
        6.52171884002226E-02
        6.54242156668374E-02
        6.56317666770749E-02
        6.58398429152289E-02
        6.60484458726170E-02
        6.62575770476277E-02
        6.64672379457672E-02
