ocio/looks/openagx_s70_0.spi1d
Version 1
From 0.000000 1.000000
Length 4096
Components 1
{
        0.00000000000000E+00
        4.21863930271659E-08
        1.68808580866876E-07
        3.79961209090673E-07
        6.75739100218827E-07
        1.05623725418383E-06
        1.52155084879546E-06
        2.07177524020740E-06
        2.70700596338547E-06
        3.42733873257735E-06
        4.23286944178405E-06
        5.12369416523276E-06
        6.09990915785152E-06
        7.16161085574535E-06
        8.30889587667404E-06
        9.54186102053157E-06
        1.08606032698272E-05
        1.22652197901680E-05
        1.37558079307433E-05
        1.53324652248107E-05
        1.69952893901835E-05
        1.87443783297201E-05
        2.05798301318151E-05
        2.25017430708915E-05
        2.45102156078955E-05
        2.66053463907922E-05
        2.87872342550635E-05
        3.10559782242070E-05
        3.34116775102380E-05
        3.58544315141915E-05
        3.83843398266272E-05
        4.10015022281356E-05
        4.37060186898461E-05
        4.64979893739369E-05
        4.93775146341464E-05
        5.23446950162863E-05
        5.53996312587570E-05
        5.85424242930646E-05
        6.17731752443388E-05
        6.50919854318539E-05
        6.84989563695510E-05
        7.19941897665619E-05
        7.55777875277347E-05
        7.92498517541621E-05
        8.30104847437102E-05
        8.68597889915503E-05
        9.07978671906919E-05
        9.48248222325177E-05
        9.89407572073204E-05
        1.03145775404842E-04
        1.07439980314814E-04
        1.11823475627499E-04
        1.16296365234238E-04
        1.20858753227994E-04
        1.25510743903899E-04
        1.30252441759809E-04
        1.35083951496853E-04
        1.40005378019986E-04
        1.45016826438547E-04
        1.50118402066816E-04
        1.55310210424574E-04
        1.60592357237665E-04
        1.65964948438560E-04
        1.71428090166921E-04
        1.76981888770172E-04
        1.82626450804067E-04
        1.88361883033260E-04
        1.94188292431883E-04
        2.00105786184118E-04
        2.06114471684776E-04
        2.12214456539879E-04
        2.18405848567240E-04
        2.24688755797046E-04
        2.31063286472447E-04
        2.37529549050141E-04
        2.44087652200969E-04
        2.50737704810500E-04
        2.57479815979634E-04
        2.64314095025192E-04
        2.71240651480519E-04
        2.78259595096082E-04
        2.85371035840073E-04
        2.92575083899019E-04
        2.99871849678382E-04
        3.07261443803174E-04
        3.14743977118567E-04
        3.22319560690506E-04
        3.29988305806326E-04
        3.37750323975372E-04
        3.45605726929615E-04
        3.53554626624279E-04
        3.61597135238467E-04
        3.69733365175780E-04
        3.77963429064958E-04
        3.86287439760503E-04
        3.94705510343317E-04
        4.03217754121337E-04
        4.11824284630177E-04
        4.20525215633762E-04
        4.29320661124980E-04
        4.38210735326318E-04
        4.47195552690520E-04
        4.56275227901229E-04
        4.65449875873646E-04
        4.74719611755181E-04
        4.84084550926111E-04
        4.93544809000240E-04
        5.03100501825565E-04
        5.12751745484934E-04
        5.22498656296718E-04
        5.32341350815480E-04
        5.42279945832644E-04
        5.52314558377173E-04
        5.62445305716244E-04
        5.72672305355929E-04
        5.82995675041874E-04
        5.93415532759984E-04
        6.03931996737116E-04
        6.14545185441758E-04
        6.25255217584730E-04
        6.36062212119874E-04
        6.46966288244750E-04
        6.57967565401342E-04
        6.69066163276752E-04
        6.80262201803911E-04
        6.91555801162284E-04
        7.02947081778579E-04
        7.14436164327463E-04
        7.26023169732274E-04
        7.37708219165742E-04
        7.49491434050705E-04
        7.61372936060840E-04
        7.73352847121379E-04
        7.85431289409849E-04
        7.97608385356792E-04
        8.09884257646509E-04
        8.22259029217792E-04
        8.34732823264662E-04
        8.47305763237117E-04
        8.59977972841873E-04
        8.72749576043113E-04
        8.85620697063237E-04
        8.98591460383620E-04
        9.11661990745360E-04
        9.24832413150048E-04
        9.38102852860520E-04
        9.51473435401630E-04
        9.64944286561013E-04
        9.78515532389857E-04
        9.92187299203679E-04
        1.00595971358310E-03
        1.01983290237461E-03
        1.03380699269140E-03
        1.04788211191407E-03
        1.06205838769150E-03
        1.07633594794156E-03
        1.09071492085199E-03
        1.10519543488111E-03
        1.11977761875870E-03
        1.13446160148675E-03
        1.14924751234028E-03
        1.16413548086817E-03
        1.17912563689393E-03
        1.19421811051658E-03
        1.20941303211140E-03
        1.22471053233080E-03
        1.24011074210512E-03
        1.25561379264347E-03
        1.27121981543457E-03
        1.28692894224756E-03
        1.30274130513286E-03
        1.31865703642299E-03
        1.33467626873345E-03
        1.35079913496353E-03
        1.36702576829719E-03
        1.38335630220387E-03
        1.39979087043942E-03
        1.41632960704690E-03
        1.43297264635745E-03
        1.44972012299120E-03
        1.46657217185809E-03
        1.48352892815877E-03
        1.50059052738550E-03
        1.51775710532296E-03
        1.53502879804922E-03
        1.55240574193656E-03
        1.56988807365243E-03
        1.58747593016025E-03
        1.60516944872040E-03
        1.62296876689109E-03
        1.64087402252923E-03
        1.65888535379139E-03
        1.67700289913469E-03
        1.69522679731773E-03
        1.71355718740147E-03
        1.73199420875020E-03
        1.75053800103245E-03
        1.76918870422191E-03
        1.78794645859839E-03
        1.80681140474872E-03
        1.82578368356772E-03
        1.84486343625915E-03
        1.86405080433664E-03
        1.88334592962464E-03
        1.90274895425942E-03
        1.92226002068995E-03
        1.94187927167895E-03
        1.96160685030380E-03
        1.98144289995755E-03
        2.00138756434986E-03
        2.02144098750802E-03
        2.04160331377787E-03
        2.06187468782488E-03
        2.08225525463504E-03
        2.10274515951595E-03
        2.12334454809775E-03
        2.14405356633415E-03
        2.16487236050344E-03
        2.18580107720949E-03
        2.20683986338278E-03
        2.22798886628142E-03
        2.24924823349215E-03
        2.27061811293138E-03
        2.29209865284624E-03
        2.31369000181560E-03
        2.33539230875110E-03
        2.35720572289821E-03
        2.37913039383729E-03
        2.40116647148461E-03
        2.42331410609343E-03
        2.44557344825505E-03
        2.46794464889989E-03
        2.49042785929855E-03
        2.51302323106289E-03
        2.53573091614710E-03
        2.55855106684878E-03
        2.58148383581006E-03
        2.60452937601864E-03
        2.62768784080892E-03
        2.65095938386313E-03
        2.67434415921234E-03
        2.69784232123769E-03
        2.72145402467140E-03
        2.74517942459795E-03
        2.76901867645521E-03
        2.79297193603550E-03
        2.81703935948682E-03
        2.84122110331389E-03
        2.86551732437937E-03
        2.88992817990497E-03
        2.91445382747259E-03
        2.93909442502550E-03
        2.96385013086953E-03
        2.98872110367414E-03
        3.01370750247371E-03
        3.03880948666861E-03
        3.06402721602646E-03
        3.08936085068327E-03
        3.11481055114465E-03
        3.14037647828699E-03
        3.16605879335868E-03
        3.19185765798130E-03
        3.21777323415083E-03
        3.24380568423887E-03
        3.26995517099388E-03
        3.29622185754237E-03
        3.32260590739015E-03
        3.34910748442355E-03
        3.37572675291071E-03
        3.40246387750275E-03
        3.42931902323508E-03
        3.45629235552865E-03
        3.48338404019119E-03
        3.51059424341847E-03
        3.53792313179562E-03
        3.56537087229836E-03
        3.59293763229432E-03
        3.62062357954429E-03
        3.64842888220355E-03
        3.67635370882315E-03
        3.70439822835121E-03
        3.73256261013427E-03
        3.76084702391855E-03
        3.78925163985131E-03
        3.81777662848217E-03
        3.84642216076444E-03
        3.87518840805645E-03
        3.90407554212293E-03
        3.93308373513631E-03
        3.96221315967812E-03
        3.99146398874030E-03
        4.02083639572665E-03
        4.05033055445413E-03
        4.07994663915425E-03
        4.10968482447449E-03
        4.13954528547968E-03
        4.16952819765336E-03
        4.19963373689925E-03
        4.22986207954259E-03
        4.26021340233161E-03
        4.29068788243892E-03
        4.32128569746294E-03
        4.35200702542937E-03
        4.38285204479258E-03
        4.41382093443708E-03
        4.44491387367899E-03
        4.47613104226745E-03
        4.50747262038615E-03
        4.53893878865475E-03
        4.57052972813039E-03
        4.60224562030915E-03
        4.63408664712756E-03
        4.66605299096409E-03
        4.69814483464065E-03
        4.73036236142413E-03
        4.76270575502786E-03
        4.79517519961319E-03
        4.82777087979100E-03
        4.86049298062323E-03
        4.89334168762443E-03
        4.92631718676333E-03
        4.95941966446436E-03
        4.99264930760925E-03
        5.02600630353858E-03
        5.05949084005337E-03
        5.09310310541666E-03
        5.12684328835512E-03
        5.16071157806061E-03
        5.19470816419184E-03
        5.22883323687594E-03
        5.26308698671009E-03
        5.29746960476319E-03
        5.33198128257743E-03
        5.36662221216998E-03
        5.40139258603462E-03
        5.43629259714342E-03
        5.47132243894837E-03
        5.50648230538308E-03
        5.54177239086445E-03
        5.57719289029438E-03
        5.61274399906142E-03
        5.64842591304251E-03
        5.68423882860468E-03
        5.72018294260676E-03
        5.75625845240114E-03
        5.79246555583544E-03
        5.82880445125432E-03
        5.86527533750119E-03
        5.90187841391998E-03
        5.93861388035689E-03
        5.97548193716219E-03
        6.01248278519200E-03
        6.04961662581003E-03
        6.08688366088947E-03
        6.12428409281469E-03
        6.16181812448313E-03
        6.19948595930711E-03
        6.23728780121563E-03
        6.27522385465623E-03
        6.31329432459687E-03
        6.35149941652770E-03
        6.38983933646303E-03
        6.42831429094313E-03
        6.46692448703611E-03
        6.50567013233988E-03
        6.54455143498398E-03
        6.58356860363150E-03
        6.62272184748104E-03
        6.66201137626857E-03
        6.70143740026943E-03
        6.74100013030023E-03
        6.78069977772081E-03
        6.82053655443622E-03
        6.86051067289866E-03
        6.90062234610951E-03
        6.94087178762125E-03
        6.98125921153953E-03
        7.02178483252512E-03
        7.06244886579597E-03
        7.10325152712920E-03
        7.14419303286317E-03
        7.18527359989949E-03
        7.22649344570514E-03
        7.26785278831443E-03
        7.30935184633117E-03
        7.35099083893073E-03
        7.39276998586211E-03
        7.43468950745003E-03
        7.47674962459712E-03
        7.51895055878597E-03
        7.56129253208130E-03
        7.60377576713209E-03
        7.64640048717372E-03
        7.68916691603020E-03
        7.73207527811625E-03
        7.77512579843957E-03
        7.81831870260297E-03
        7.86165421680663E-03
        7.90513256785027E-03
        7.94875398313542E-03
        7.99251869066763E-03
        8.03642691905872E-03
        8.08047889752904E-03
        8.12467485590977E-03
        8.16901502464515E-03
        8.21349963479482E-03
        8.25812891803607E-03
        8.30290310666623E-03
        8.34782243360491E-03
        8.39288713239641E-03
        8.43809743721201E-03
        8.48345358285237E-03
        8.52895580474988E-03
        8.57460433897104E-03
        8.62039942221888E-03
        8.66634129183534E-03
        8.71243018580369E-03
        8.75866634275095E-03
        8.80505000195036E-03
        8.85158140332382E-03
        8.89826078744433E-03
        8.94508839553850E-03
        8.99206446948903E-03
        9.03918925183719E-03
        9.08646298578537E-03
        9.13388591519957E-03
        9.18145828461195E-03
        9.22918033922339E-03
        9.27705232490605E-03
        9.32507448820595E-03
        9.37324707634552E-03
        9.42157033722627E-03
        9.47004451943132E-03
        9.51866987222812E-03
        9.56744664557101E-03
        9.61637509010393E-03
        9.66545545716302E-03
        9.71468799877940E-03
        9.76407296768176E-03
        9.81361061729913E-03
        9.86330120176357E-03
        9.91314497591292E-03
        9.96314219529354E-03
        1.00132931161631E-02
        1.00635979954932E-02
        1.01140570909725E-02
        1.01646706610092E-02
        1.02154389647339E-02
        1.02663622620026E-02
        1.03174408133993E-02
        1.03686748802392E-02
        1.04200647245713E-02
        1.04716106091812E-02
        1.05233127975944E-02
        1.05751715540789E-02
        1.06271871436481E-02
        1.06793598320641E-02
        1.07316898858403E-02
        1.07841775722445E-02
        1.08368231593018E-02
        1.08896269157979E-02
        1.09425891112819E-02
        1.09957100160692E-02
        1.10489899012449E-02
        1.11024290386667E-02
        1.11560277009678E-02
        1.12097861615604E-02
        1.12637046946385E-02
        1.13177835751811E-02
        1.13720230789555E-02
        1.14264234825202E-02
        1.14809850632283E-02
        1.15357080992308E-02
        1.15905928694794E-02
        1.16456396537301E-02
        1.17008487325464E-02
        1.17562203873023E-02
        1.18117549001859E-02
        1.18674525542027E-02
        1.19233136331787E-02
        1.19793384217637E-02
        1.20355272054351E-02
        1.20918802705006E-02
        1.21483979041021E-02
        1.22050803942192E-02
        1.22619280296719E-02
        1.23189411001250E-02
        1.23761198960907E-02
        1.24334647089325E-02
        1.24909758308690E-02
        1.25486535549766E-02
        1.26064981751939E-02
        1.26645099863245E-02
        1.27226892840411E-02
        1.27810363648890E-02
        1.28395515262894E-02
        1.28982350665435E-02
        1.29570872848356E-02
        1.30161084812373E-02
        1.30752989567108E-02
        1.31346590131130E-02
        1.31941889531986E-02
        1.32538890806246E-02
        1.33137596999534E-02
        1.33738011166570E-02
        1.34340136371208E-02
        1.34943975686471E-02
        1.35549532194593E-02
        1.36156808987057E-02
        1.36765809164630E-02
        1.37376535837409E-02
        1.37988992124855E-02
        1.38603181155834E-02
        1.39219106068657E-02
        1.39836770011121E-02
        1.40456176140545E-02
        1.41077327623818E-02
        1.41700227637430E-02
        1.42324879367522E-02
        1.42951286009922E-02
        1.43579450770186E-02
        1.44209376863641E-02
        1.44841067515428E-02
        1.45474525960541E-02
        1.46109755443871E-02
        1.46746759220250E-02
        1.47385540554488E-02
        1.48026102721424E-02
        1.48668449005961E-02
        1.49312582703117E-02
        1.49958507118062E-02
        1.50606225566167E-02
        1.51255741373043E-02
        1.51907057874590E-02
        1.52560178417041E-02
        1.53215106357004E-02
        1.53871845061509E-02
        1.54530397908054E-02
        1.55190768284649E-02
        1.55852959589862E-02
        1.56516975232868E-02
        1.57182818633490E-02
        1.57850493222252E-02
        1.58520002440422E-02
        1.59191349740057E-02
        1.59864538584057E-02
        1.60539572446206E-02
        1.61216454811226E-02
        1.61895189174821E-02
        1.62575779043726E-02
        1.63258227935756E-02
        1.63942539379858E-02
        1.64628716916157E-02
        1.65316764096006E-02
        1.66006684482037E-02
        1.66698481648211E-02
        1.67392159179869E-02
        1.68087720673780E-02
        1.68785169738196E-02
        1.69484509992902E-02
        1.70185745069265E-02
        1.70888878610289E-02
        1.71593914270668E-02
        1.72300855716836E-02
        1.73009706627019E-02
        1.73720470691294E-02
        1.74433151611635E-02
        1.75147753101972E-02
        1.75864278888244E-02
        1.76582732708451E-02
        1.77303118312713E-02
        1.78025439463320E-02
        1.78749699934793E-02
        1.79475903513936E-02
        1.80204053999890E-02
        1.80934155204197E-02
        1.81666210950848E-02
        1.82400225076346E-02
        1.83136201429761E-02
        1.83874143872788E-02
        1.84614056279804E-02
        1.85355942537929E-02
        1.86099806547084E-02
        1.86845652220045E-02
        1.87593483482513E-02
        1.88343304273163E-02
        1.89095118543710E-02
        1.89848930258968E-02
        1.90604743396912E-02
        1.91362561948737E-02
        1.92122389918922E-02
        1.92884231325291E-02
        1.93648090199075E-02
        1.94413970584974E-02
        1.95181876541221E-02
        1.95951812139648E-02
        1.96723781465745E-02
        1.97497788618728E-02
        1.98273837711600E-02
        1.99051932871222E-02
        1.99832078238371E-02
        2.00614277967812E-02
        2.01398536228362E-02
        2.02184857202953E-02
        2.02973245088707E-02
        2.03763704096995E-02
        2.04556238453512E-02
        2.05350852398339E-02
        2.06147550186017E-02
        2.06946336085612E-02
        2.07747214380788E-02
        2.08550189369874E-02
        2.09355265365936E-02
        2.10162446696847E-02
        2.10971737705361E-02
        2.11783142749180E-02
        2.12596666201029E-02
        2.13412312448730E-02
        2.14230085895271E-02
        2.15049990958883E-02
        2.15872032073113E-02
        2.16696213686899E-02
        2.17522540264641E-02
        2.18351016286283E-02
        2.19181646247383E-02
        2.20014434659194E-02
        2.20849386048734E-02
        2.21686504958874E-02
        2.22525795948403E-02
        2.23367263592119E-02
        2.24210912480896E-02
        2.25056747221772E-02
        2.25904772438025E-02
        2.26754992769253E-02
        2.27607412871456E-02
        2.28462037417118E-02
        2.29318871095284E-02
        2.30177918611651E-02
        2.31039184688641E-02
        2.31902674065494E-02
        2.32768391498343E-02
        2.33636341760304E-02
        2.34506529641562E-02
        2.35378959949450E-02
        2.36253637508542E-02
        2.37130567160736E-02
        2.38009753765343E-02
        2.38891202199174E-02
        2.39774917356626E-02
        2.40660904149777E-02
        2.41549167508468E-02
        2.42439712380400E-02
        2.43332543731219E-02
        2.44227666544612E-02
        2.45125085822395E-02
        2.46024806584608E-02
        2.46926833869607E-02
        2.47831172734159E-02
        2.48737828253533E-02
        2.49646805521600E-02
        2.50558109650923E-02
        2.51471745772858E-02
        2.52387719037648E-02
        2.53306034614521E-02
        2.54226697691790E-02
        2.55149713476948E-02
        2.56075087196771E-02
        2.57002824097416E-02
        2.57932929444523E-02
        2.58865408523316E-02
        2.59800266638704E-02
        2.60737509115387E-02
        2.61677141297955E-02
        2.62619168550996E-02
        2.63563596259198E-02
        2.64510429827459E-02
        2.65459674680987E-02
        2.66411336265413E-02
        2.67365420046894E-02
        2.68321931512225E-02
        2.69280876168948E-02
        2.70242259545458E-02
        2.71206087191120E-02
        2.72172364676374E-02
        2.73141097592853E-02
        2.74112291553492E-02
        2.75085952192644E-02
        2.76062085166192E-02
        2.77040696151670E-02
        2.78021790848371E-02
        2.79005374977471E-02
        2.79991454282144E-02
        2.80980034527679E-02
        2.81971121501604E-02
        2.82964721013800E-02
        2.83960838896629E-02
        2.84959481005050E-02
        2.85960653216744E-02
        2.86964361432240E-02
        2.87970611575036E-02
        2.88979409591725E-02
        2.89990761452124E-02
        2.91004673149397E-02
        2.92021150700188E-02
        2.93040200144744E-02
        2.94061827547051E-02
        2.95086038994959E-02
        2.96112840600319E-02
        2.97142238499112E-02
        2.98174238851585E-02
        2.99208847842382E-02
        3.00246071680684E-02
        3.01285916600343E-02
        3.02328388860020E-02
        3.03373494743322E-02
        3.04421240558943E-02
        3.05471632640807E-02
        3.06524677348202E-02
        3.07580381065931E-02
        3.08638750204449E-02
        3.09699791200012E-02
        3.10763510514819E-02
        3.11829914637162E-02
        3.12899010081571E-02
        3.13970803388965E-02
        3.15045301126799E-02
        3.16122509889219E-02
        3.17202436297211E-02
        3.18285086998753E-02
        3.19370468668975E-02
        3.20458588010309E-02
        3.21549451752646E-02
        3.22643066653499E-02
        3.23739439498155E-02
        3.24838577099839E-02
        3.25940486299876E-02
        3.27045173967851E-02
        3.28152647001772E-02
        3.29262912328241E-02
        3.30375976902613E-02
        3.31491847709166E-02
        3.32610531761272E-02
        3.33732036101564E-02
        3.34856367802107E-02
        3.35983533964573E-02
        3.37113541720414E-02
        3.38246398231035E-02
        3.39382110687973E-02
        3.40520686313073E-02
        3.41662132358669E-02
        3.42806456107763E-02
        3.43953664874207E-02
        3.45103766002887E-02
        3.46256766869907E-02
        3.47412674882775E-02
        3.48571497480591E-02
        3.49733242134237E-02
        3.50897916346564E-02
        3.52065527652587E-02
        3.53236083619679E-02
        3.54409591847761E-02
        3.55586059969505E-02
        3.56765495650526E-02
        3.57947906589586E-02
        3.59133300518791E-02
        3.60321685203796E-02
        3.61513068444009E-02
        3.62707458072797E-02
        3.63904861957692E-02
        3.65105288000601E-02
        3.66308744138016E-02
        3.67515238341227E-02
        3.68724778616534E-02
        3.69937373005468E-02
        3.71153029585001E-02
        3.72371756467771E-02
        3.73593561802299E-02
        3.74818453773215E-02
        3.76046440601479E-02
        3.77277530544610E-02
        3.78511731896912E-02
        3.79749052989705E-02
        3.80989502191557E-02
        3.82233087908516E-02
        3.83479818584347E-02
        3.84729702700769E-02
        3.85982748777691E-02
        3.87238965373460E-02
        3.88498361085099E-02
        3.89760944548553E-02
        3.91026724438937E-02
        3.92295709470784E-02
        3.93567908398298E-02
        3.94843330015606E-02
        3.96121983157015E-02
        3.97403876697265E-02
        3.98689019551795E-02
        3.99977420677000E-02
        4.01269089070495E-02
        4.02564033771386E-02
        4.03862263860530E-02
        4.05163788460816E-02
        4.06468616737427E-02
        4.07776757898124E-02
        4.09088221193516E-02
        4.10403015917348E-02
        4.11721151406773E-02
        4.13042637042646E-02
        4.14367482249804E-02
        4.15695696497361E-02
        4.17027289298994E-02
        4.18362270213240E-02
        4.19700648843794E-02
        4.21042434839805E-02
        4.22387637896182E-02
        4.23736267753894E-02
        4.25088334200279E-02
        4.26443847069354E-02
        4.27802816242127E-02
        4.29165251646912E-02
        4.30531163259644E-02
        4.31900561104206E-02
        4.33273455252745E-02
        4.34649855826001E-02
        4.36029772993637E-02
